X:33
T:Castle Jig, The
C:Sen Ryan
N:For fiddle teaching purposes, from Alan Ng
Z: id:ng-jigs-33 transcribed by Alan Ng alan@alan-ng.nospam (net) 28 Oct. 2007
M:6/8
L:1/8
K:ADor
|~c3 ~B3|AGE DB,G,|~A,3 ~E3|DEG AGB|~c3 ~B3|AGE DB,G,|~A,3 ~E3|\
DB,G, A,3::cBA ~a3|bag edB|GBd ~g3|GBd cBA|~c3 ~d3|ede gab|age dBG|EAA A3:|**
